img/logos/mercurial.svg

<?xml version="1.0" encoding="UTF-8" standalone="no"?>
<svg width="256px" height="329px" viewBox="0 0 256 329" version="1.1" xmlns="http://www.w3.org/2000/svg" xmlns:xlink="http://www.w3.org/1999/xlink" preserveAspectRatio="xMinYMin meet">
	<g>
		<path d="M0,284.853385 C4.3294326,282.944483 8.93010429,281.990982 13.3499434,281.990982 C17.5889671,281.990982 20.2951474,283.030784 21.8280175,285.200684 C25.0745684,283.032757 29.4944319,281.990982 32.9218178,281.990982 C43.2060149,281.990982 43.565626,286.154111 43.565626,298.384377 L43.565626,325.442195 C43.565626,326.656426 43.7464342,326.656426 38.6053651,326.656426 L38.6053651,297.86243 C38.6053651,289.016416 38.4245325,286.326762 32.564263,286.326762 C29.9485368,286.326762 27.2423809,286.932866 24.3553948,288.841841 L24.3553948,326.048226 C24.2649895,326.395598 24.084174,326.481802 23.4554033,326.568127 C23.3629197,326.568127 23.2745707,326.654428 23.182109,326.654428 L19.3930751,326.654428 L19.3930751,297.86243 C19.3930751,289.363545 19.3930751,286.240339 13.2615896,286.240339 C10.6458414,286.240339 8.03008839,286.760216 4.96229416,288.235688 L4.96229416,325.442195 C4.96229416,326.656426 5.14312915,326.656426 0.00205662646,326.656426 L0.00205662646,284.853385 M67.8121093,281.990982 C60.1456949,281.990982 51.6676427,284.158811 51.6676427,307.316642 C51.6676427,325.183146 57.8895579,327.95725 66.4600473,327.95725 C73.0415517,327.95725 78.7251014,325.789445 78.7251014,324.747597 C78.7251014,323.446992 78.5442908,321.451716 78.0942743,320.323616 C75.2977131,322.232518 71.327849,323.272222 66.9100663,323.272222 C60.8669297,323.272222 56.8087143,321.537993 56.7162526,308.095397 C60.6861191,308.095397 70.7895031,308.00895 78.2751069,306.533745 C78.9059364,303.67144 79.1750935,299.508262 79.1750935,295.867056 C79.1750935,287.193889 75.6573023,281.990982 67.8121093,281.990982 M67.3600608,286.326762 C72.7723702,286.326762 74.2148594,289.881472 74.3052647,296.820654 C74.3052647,298.641111 74.2148594,300.809013 73.9436191,302.890541 C68.8929553,304.104967 60.3223976,304.104967 56.7141987,304.104967 C57.3491361,288.321916 62.7593891,286.326762 67.3600608,286.326762 M87.024375,285.806861 C91.261369,283.030784 95.1428647,281.990982 99.1106724,281.990982 C103.530509,281.990982 105.605838,283.205408 105.605838,284.680856 C105.605838,285.547885 105.332566,287.023309 104.882549,287.890436 C103.618858,287.195838 102.17845,286.589685 99.8298265,286.589685 C96.9449163,286.589685 94.2387409,287.368488 92.0750412,289.27739 L92.0750412,325.444266 C92.0750412,326.65857 92.1654684,326.65857 87.024375,326.65857 L87.024375,285.806861 M132.560577,284.853385 C132.560577,283.725284 128.773602,281.990982 124.984568,281.990982 C117.675689,281.990982 108.74762,284.50611 108.74762,305.927519 C108.74762,326.220901 114.161984,328.043478 123.630452,328.043478 C128.319475,328.043478 132.560577,325.528496 132.560577,324.141444 C132.560577,323.360521 132.381799,322.146144 131.927694,321.104442 C130.033178,322.491445 127.148268,323.794096 124.082525,323.794096 C117.589394,323.794096 113.800338,321.973542 113.800338,306.188542 C113.800338,288.75554 120.022256,286.326762 125.434565,286.326762 C128.500308,286.326762 130.214011,287.193889 131.927694,288.321916 C132.381799,287.282187 132.560577,285.806861 132.560577,284.853385 M167.11186,325.183146 C163.141996,327.178349 157.912554,327.959199 153.402288,327.959199 C141.856436,327.959199 140.142731,323.103738 140.142731,311.567948 L140.142731,284.421831 C140.142731,283.295826 140.05438,283.295826 145.195473,283.295826 L145.195473,312.089993 C145.195473,320.763283 146.457106,323.712059 153.221455,323.712059 C155.837225,323.712059 159.445424,323.192134 162.151578,321.630483 L162.151578,284.423902 C162.151578,283.297824 161.970769,283.297824 167.11186,283.297824 L167.11186,325.183146 M177.398114,285.806861 C181.635062,283.030784 185.51452,281.990982 189.482331,281.990982 C193.902145,281.990982 195.977494,283.205408 195.977494,284.680856 C195.977494,285.547885 195.706258,287.023309 195.256239,287.890436 C193.992551,287.195838 192.550132,286.589685 190.203543,286.589685 C187.318633,286.589685 184.612453,287.368488 182.446721,289.27739 L182.446721,325.444266 C182.446721,326.65857 182.539183,326.65857 177.398114,326.65857 L177.398114,285.806861 M207.55825,283.291757 C203.58843,283.291757 202.417203,283.291757 202.417203,285.634186 L202.417203,326.656426 C207.467869,326.656426 207.55825,326.656426 207.55825,325.442195 L207.55825,283.291757 M202.236365,268.02851 C202.236365,270.890912 203.138435,271.93069 204.94047,272.016917 C207.015818,272.016917 208.008269,270.543638 208.008269,267.940235 C208.098674,265.252481 207.375383,264.038128 205.302113,264.038128 C203.31927,264.038128 202.326773,265.513479 202.236365,268.02851 M216.114418,285.806861 C216.114418,284.853385 216.295233,284.33151 216.656876,284.072535 C218.370579,283.119058 224.956162,281.990982 232.441785,281.990982 C238.125296,281.990982 241.73147,284.680856 241.73147,292.484899 L241.73147,298.121308 C241.73147,313.559082 241.281454,325.094896 241.281454,325.094896 C239.206164,326.220901 235.328737,327.95725 229.012328,327.95725 C222.519202,328.043478 216.026047,327.437276 216.026047,314.600955 C216.026047,302.372736 222.700013,300.463858 229.373974,300.463858 C231.899305,300.463858 234.876699,300.724735 236.86162,301.505585 L236.86162,293.4384 C236.86162,287.802064 233.97669,286.587662 230.547257,286.587662 C225.94861,286.587662 219.545894,287.454789 216.749336,288.75554 C216.206904,287.802064 216.114418,286.326762 216.114418,285.806861 M236.859549,305.06239 C235.14588,304.454166 232.710942,304.195288 230.997225,304.195288 C225.856146,304.195288 221.165084,305.23509 221.165084,314.775579 C221.165084,323.707795 225.044533,323.796192 229.643107,323.796192 C232.530083,323.796192 235.417108,323.015415 236.40751,321.975637 C236.409557,321.973542 236.859549,311.565877 236.859549,305.06239 M255.999892,325.442195 C255.999892,326.656426 256.09031,326.656426 251.037577,326.656426 L251.037577,265.252481 C251.037577,262.910004 252.030026,262.910004 255.999892,262.910004 L255.999892,325.442195" fill="#010101"></path>
		<g>
			<path d="M239.1503,190.972623 C284.879512,114.939051 229.492397,-8.376414 128.218177,4.15159373 C36.7149306,15.463411 35.2405527,111.774038 115.883447,134.653686 C185.669889,154.470916 130.30078,198.735388 131.918626,228.212119 C133.543294,257.684414 192.587362,268.377125 239.1503,190.972623 L239.1503,190.972623 Z" fill="#1B1A1B"></path>
			<path d="M81.3330165,238.91094 C102.407333,233.368549 115.019058,211.712712 109.502093,190.541273 C103.985127,169.369835 82.4286336,156.699988 61.3543168,162.242379 C40.28,167.78477 27.6682749,189.440607 33.1852405,210.612045 C38.7022061,231.783484 60.2586997,244.45333 81.3330165,238.91094 L81.3330165,238.91094 Z" fill="#1B1A1B"></path>
			<path d="M23.7809019,90.9691002 C9.59172568,92.3489356 -0.795036493,105.01134 0.578459951,119.265905 C1.95456394,133.530418 14.5583523,143.973154 28.7500001,142.592668 C42.937113,141.194773 53.3325821,128.53539 51.9534851,114.27964 C50.5745015,100.034489 37.9725497,89.5886134 23.7809019,90.9691002 L23.7809019,90.9691002 Z" fill="#1B1A1B"></path>
			<path d="M239.343794,187.560035 C284.78563,111.658458 229.749583,-11.4418791 129.117286,1.06427188 C38.1940324,12.3563548 36.7271631,108.502105 116.858912,131.341837 C186.203014,151.124495 131.184859,195.311745 132.793101,224.739538 C134.409298,254.157274 193.075994,264.829487 239.343794,187.560035 L239.343794,187.560035 Z" fill="#BFBFBF"></path>
			<path d="M144.453295,236.352561 C141.699566,231.865569 145.910641,226.880928 150.239124,227.259945 C157.129192,227.866157 172.131018,227.178784 183.968354,220.438284 C213.541624,203.596281 259.052279,122.55842 236.162813,71.4464006 C225.915366,48.566435 220.925546,42.0154278 210.372322,30.8234732 C208.21948,28.5409046 209.455387,28.6649716 210.913193,29.4375559 C216.620002,32.4463425 226.648252,44.1005679 236.934562,63.0692255 C254.314082,95.1177292 253.412803,133.217619 246.948996,157.117604 C242.446529,173.743962 226.938277,211.356442 204.226502,227.618984 C181.463622,243.918884 154.828713,253.267511 144.453295,236.352561 L144.453295,236.352561 Z" fill="#000000"></path>
			<path d="M123.846729,131.186237 C108.353228,126.565852 88.3794951,120.131481 76.8264797,104.950595 C68.3097134,93.7572057 63.9861982,81.540747 62.8820726,74.6135841 C62.4892628,72.1418535 62.1555877,70.0797564 62.864364,69.5106894 C63.1922799,69.2464029 69.2240777,82.9428805 78.2411527,94.4219027 C87.2564137,105.904064 99.8570277,112.619286 110.354214,115.059163 C119.690847,117.2276 139.03109,121.9923 145.574565,127.592593 C152.301625,133.349228 152.863132,145.787076 150.59943,147.190267 C148.316569,148.601154 143.687482,137.10018 123.846729,131.186237 L123.846729,131.186237 Z" fill="#000000"></path>
			<path d="M155.79378,238.546753 C155.494735,242.109267 159.567912,242.807893 165.05064,241.98248 C172.078164,240.923562 178.021156,240.128581 186.109763,236.056118 C197.072346,230.536881 208.167041,222.641701 216.292447,211.990422 C240.53532,180.21515 249.120019,142.619123 247.797993,137.210844 C247.356211,141.677219 241.503729,165.121457 228.119266,186.257481 C210.929185,213.406239 198.463694,227.866977 169.714438,234.877747 C161.713591,236.830438 156.185308,233.857075 155.79378,238.546753 L155.79378,238.546753 Z" fill="#FFFFFF"></path>
			<path d="M92.0301727,114.985947 C95.3045927,117.776087 102.013559,121.493932 115.214373,125.842987 C131.158002,131.094386 138.920777,135.648539 142.171747,137.830983 C145.616619,140.148454 147.800026,145.319566 148.015724,140.72663 C148.240676,136.128602 145.419577,132.174878 139.12509,130.078011 C134.866449,128.657514 127.702495,125.274581 120.835145,123.913005 C116.422372,123.037952 109.243036,121.301351 103.086099,119.407477 C99.7117534,118.36562 96.2735341,116.540678 92.0301727,114.985947 L92.0301727,114.985947 Z" fill="#FFFFFF"></path>
			<path d="M81.3225018,235.830867 C102.31319,230.288476 114.874869,208.632639 109.379796,187.461201 C103.884723,166.289762 82.4137712,153.619916 61.4230826,159.162306 C40.4323941,164.704697 27.8707156,186.360534 33.3657885,207.531973 C38.8608613,228.703411 60.3318132,241.373258 81.3225018,235.830867 L81.3225018,235.830867 Z" fill="#BFBFBF"></path>
			<path d="M47.9838129,226.374533 C78.5429469,254.935489 124.540468,215.703254 104.285836,181.051875 C102.01139,177.161389 99.0584209,174.199449 100.02957,177.17976 C106.502647,197.104626 100.521118,212.866609 89.360414,220.987481 C78.4174684,228.952524 63.3765274,230.28513 51.3349894,223.988247 C47.7988924,222.139611 46.3323335,224.833455 47.9838129,226.374533 L47.9838129,226.374533 Z" fill="#000000"></path>
			<path d="M71.9622106,232.240804 C75.8528817,231.41546 98.4817299,225.504314 103.797789,206.731786 C105.453491,200.878804 105.750769,202.054609 105.282934,205.226191 C102.894867,221.413263 87.724834,233.3538 74.8162833,233.796506 C72.1967715,234.06828 68.7597972,232.916287 71.9622106,232.240804 L71.9622106,232.240804 Z" fill="#FFFFFF"></path>
			<path d="M23.9987528,87.8890228 C9.86590541,89.2688582 -0.479639458,101.931262 0.888406604,116.185825 C2.25839492,130.44785 14.8128232,140.893077 28.9456932,139.513242 C43.0789697,138.114694 53.4325546,125.452825 52.056446,111.197727 C50.6853962,96.9519243 38.1340845,86.508536 23.9987528,87.8890228 L23.9987528,87.8890228 Z" fill="#BFBFBF"></path>
			<path d="M12.3352314,133.418225 C12.4919441,135.250325 14.9797892,137.604015 18.8883019,138.684658 C22.2461407,139.613065 30.9022644,141.986214 42.0224746,134.907119 C53.1426847,127.828023 54.4249329,108.892867 49.3698587,103.323644 C47.8051031,100.502726 45.7702545,98.449025 47.3893029,102.951038 C51.478016,114.318788 43.5330278,124.952204 36.6802632,129.876102 C29.8299602,134.79935 21.1419023,132.469451 17.5943098,131.378545 C14.04674,130.28764 12.1759892,131.525673 12.3352314,133.418225 L12.3352314,133.418225 Z" fill="#000000"></path>
			<path d="M26.685453,135.961805 C27.7046389,135.036315 32.864143,135.414608 37.5225459,132.887782 C42.1784871,130.361605 47.7126654,124.823886 48.7002106,116.954952 C49.2819605,112.334227 49.4566729,113.494566 49.6882752,116.011105 C48.9656443,129.093035 37.0377958,136.318947 30.2162879,137.272386 C28.3755743,137.52987 25.1362128,137.372715 26.685453,135.961805 L26.685453,135.961805 Z" fill="#FFFFFF"></path>
			<path d="M230.728662,138.253287 C249.99931,82.2303685 209.673359,-2.3743583 128.093182,7.80299884 C54.3801933,16.9952953 53.1915346,95.2484978 118.154774,113.840474 C191.739407,125.075072 147.429783,181.063098 141.144258,209.296896 C135.509171,234.60586 200.611548,238.771192 230.728662,138.253287 L230.728662,138.253287 Z" fill="#999999"></path>
			<path d="M180.30733,182.012569 C160.372687,179.52444 131.685564,224.919331 158.734417,219.602985 C185.778984,214.290444 131.685564,224.919331 158.734417,219.602985 C171.735308,217.658381 182.505881,213.028726 192.147712,201.928681 C204.719429,187.458724 223.499443,156.202253 228.930962,136.006759 C233.506368,118.979072 231.206564,92.5975982 226.489998,117.385009 C221.652598,142.823501 200.241971,184.5007 180.30733,182.012569 L180.30733,182.012569 Z" fill="#F3F3F3"></path>
			<path d="M46.4000413,218.323523 C51.0152855,218.401722 53.8069577,219.057091 58.4805147,222.36462 C67.7190207,226.23663 84.7006335,223.783079 92.5423209,213.370932 C100.384008,202.958768 100.641492,188.612489 97.6537656,179.943631 C90.3449104,158.727373 59.2944993,159.102501 45.4231559,176.716533 C30.4176498,196.386575 41.7847744,218.245323 46.4000413,218.323523 L46.4000413,218.323523 Z" fill="#999999"></path>
			<path d="M5.18306623,120.00702 C6.10297135,122.928835 8.4535263,127.192035 13.4172017,127.902745 C20.0454554,128.851794 21.4005607,131.872325 29.227365,130.305326 C37.0541694,128.738326 42.9867805,122.268949 45.360778,115.112848 C48.0786897,105.21118 44.0091281,100.099245 37.8844147,95.5352648 C31.7597239,90.9712847 18.2866326,91.4620655 10.2461353,98.8547383 C4.53200504,104.105142 2.94342295,112.893422 5.18306623,120.00702 L5.18306623,120.00702 Z" fill="#999999"></path>
			<path d="M31.2127765,126.554998 C37.2267137,124.967071 45.1803743,116.701781 41.2318196,110.391291 C36.3602657,102.615788 22.7878712,109.271421 22.3288897,117.928231 C21.8681015,126.588177 24.8388223,128.23798 31.2127765,126.554998 L31.2127765,126.554998 Z" fill="#F3F3F3"></path>
			<path d="M76.3700855,219.836081 C81.5012915,218.48122 97.2211401,212.029237 94.2685771,188.979779 C92.7742395,177.304358 86.4604726,203.470164 74.768924,207.383659 C57.0557594,213.312299 59.0457555,224.410407 76.3700855,219.836081 L76.3700855,219.836081 Z" fill="#F3F3F3"></path>
		</g>
	</g>
</svg>

<svg width="256" height="329" viewBox="0 0 256 329" xmlns="http://www.w3.org/2000/svg" preserveAspectRatio="xMinYMin meet"><path d="M0 284.853c4.33-1.91 8.93-2.862 13.35-2.862 4.24 0 6.945 1.04 8.478 3.21 3.247-2.167 7.666-3.21 11.094-3.21 10.284 0 10.644 4.164 10.644 16.394v27.058c0 1.214.18 1.214-4.96 1.214v-28.794c0-8.846-.18-11.535-6.042-11.535-2.615 0-5.322.606-8.21 2.515v37.206c-.09.348-.27.434-.9.52-.09 0-.18.086-.272.086h-3.79v-28.792c0-8.498 0-11.622-6.13-11.622-2.616 0-5.232.52-8.3 1.996v37.206c0 1.214.18 1.214-4.96 1.214v-41.803m67.81-2.862c-7.666 0-16.144 2.17-16.144 25.327 0 17.866 6.222 20.64 14.792 20.64 6.582 0 12.265-2.168 12.265-3.21 0-1.3-.18-3.295-.63-4.423-2.797 1.91-6.767 2.948-11.185 2.948-6.043 0-10.1-1.734-10.194-15.177 3.97 0 14.074-.086 21.56-1.56.63-2.864.9-7.027.9-10.668 0-8.673-3.52-13.876-11.364-13.876m-.452 4.337c5.412 0 6.855 3.554 6.945 10.494 0 1.82-.09 3.99-.36 6.07-5.052 1.215-13.623 1.215-17.23 1.215.634-15.783 6.044-17.778 10.645-17.778m19.664-.52c4.237-2.776 8.12-3.816 12.087-3.816 4.42 0 6.496 1.215 6.496 2.69 0 .868-.273 2.343-.723 3.21-1.264-.694-2.705-1.3-5.053-1.3-2.885 0-5.59.778-7.755 2.687v36.167c0 1.215.09 1.215-5.05 1.215v-40.853m45.536-.954c0-1.128-3.786-2.862-7.575-2.862-7.31 0-16.237 2.516-16.237 23.938 0 20.293 5.414 22.115 14.882 22.115 4.69 0 8.93-2.515 8.93-3.902 0-.78-.178-1.994-.632-3.036-1.895 1.387-4.78 2.69-7.845 2.69-6.494 0-10.283-1.82-10.283-17.605 0-17.434 6.222-19.863 11.635-19.863 3.065 0 4.78.867 6.493 1.995.454-1.04.633-2.515.633-3.47m34.552 40.33c-3.97 1.996-9.2 2.777-13.71 2.777-11.546 0-13.26-4.856-13.26-16.392v-27.146c0-1.126-.088-1.126 5.053-1.126v28.794c0 8.673 1.262 11.622 8.026 11.622 2.617 0 6.225-.52 8.932-2.082v-37.206c0-1.126-.18-1.126 4.96-1.126v41.885m10.286-39.376c4.237-2.776 8.117-3.816 12.084-3.816 4.42 0 6.495 1.215 6.495 2.69 0 .868-.27 2.343-.72 3.21-1.264-.694-2.707-1.3-5.053-1.3-2.885 0-5.592.778-7.757 2.687v36.167c0 1.215.092 1.215-5.05 1.215v-40.853m30.16-2.515c-3.97 0-5.14 0-5.14 2.342v41.022c5.05 0 5.14 0 5.14-1.214v-42.15m-5.32-15.263c0 2.86.9 3.9 2.703 3.987 2.076 0 3.068-1.473 3.068-4.077.09-2.688-.633-3.902-2.706-3.902-1.983 0-2.975 1.475-3.066 3.99m13.878 17.78c0-.955.18-1.476.543-1.735 1.714-.954 8.3-2.082 15.785-2.082 5.683 0 9.29 2.69 9.29 10.495v5.636c0 15.44-.45 26.975-.45 26.975-2.076 1.126-5.953 2.862-12.27 2.862-6.493.086-12.986-.52-12.986-13.356 0-12.227 6.674-14.136 13.348-14.136 2.525 0 5.503.26 7.488 1.042v-8.068c0-5.636-2.885-6.85-6.315-6.85-4.598 0-11 .867-13.798 2.168-.543-.954-.636-2.43-.636-2.95m20.746 19.256c-1.714-.608-4.15-.867-5.863-.867-5.14 0-9.832 1.04-9.832 10.58 0 8.933 3.88 9.02 8.478 9.02 2.887 0 5.774-.78 6.765-1.82.002 0 .452-10.41.452-16.913m19.14 20.38c0 1.214.09 1.214-4.962 1.214v-61.404c0-2.342.992-2.342 4.962-2.342v62.532" fill="#010101"/><path d="M239.15 190.973c45.73-76.034-9.658-199.35-110.932-186.82-91.503 11.31-92.977 107.62-12.335 130.5 69.787 19.818 14.418 64.082 16.036 93.56 1.623 29.47 60.667 40.164 107.23-37.24z" fill="#1B1A1B"/><path d="M81.333 238.91c21.074-5.54 33.686-27.197 28.17-48.37-5.518-21.17-27.074-33.84-48.15-28.298-21.073 5.543-33.685 27.2-28.168 48.37 5.517 21.17 27.074 33.84 48.148 28.3zM23.78 90.97C9.593 92.35-.794 105.01.58 119.265c1.377 14.264 13.98 24.707 28.172 23.327 14.187-1.398 24.583-14.058 23.203-28.313-1.378-14.246-13.98-24.69-28.172-23.31z" fill="#1B1A1B"/><path d="M239.344 187.56c45.442-75.902-9.594-199.002-110.227-186.496-90.923 11.292-92.39 107.438-12.258 130.278 69.343 19.782 14.325 63.97 15.933 93.398 1.616 29.417 60.283 40.09 106.55-37.18z" fill="#BFBFBF"/><path d="M144.453 236.353c-2.753-4.487 1.458-9.472 5.786-9.093 6.89.606 21.89-.08 33.728-6.822 29.574-16.842 75.084-97.88 52.195-148.992-10.248-22.88-15.237-29.43-25.79-40.623-2.154-2.282-.918-2.158.54-1.385 5.707 3.008 15.735 14.663 26.022 33.63 17.38 32.05 16.478 70.15 10.014 94.05-4.503 16.626-20.012 54.238-42.723 70.5-22.763 16.3-49.398 25.65-59.774 8.735zM123.847 131.186c-15.494-4.62-35.468-11.055-47.02-26.235-8.517-11.193-12.84-23.41-13.945-30.336-.393-2.472-.726-4.534-.018-5.103.328-.264 6.36 13.433 15.377 24.912 9.016 11.482 21.617 18.197 32.114 20.637 9.337 2.168 28.677 6.932 35.22 12.533 6.728 5.756 7.29 18.194 5.025 19.597-2.283 1.41-6.913-10.09-26.753-16.004z"/><path d="M155.794 238.547c-.3 3.562 3.774 4.26 9.257 3.435 7.028-1.058 12.97-1.853 21.06-5.926 10.962-5.52 22.057-13.414 30.182-24.066 24.243-31.775 32.828-69.37 31.506-74.78-.442 4.467-6.294 27.91-19.68 49.047-17.19 27.15-29.654 41.61-58.404 48.62-8 1.953-13.53-1.02-13.92 3.67zM92.03 114.986c3.275 2.79 9.984 6.508 23.184 10.857 15.944 5.25 23.707 9.806 26.958 11.988 3.445 2.318 5.628 7.49 5.844 2.897.225-4.598-2.596-8.552-8.89-10.65-4.26-1.42-11.424-4.802-18.29-6.164-4.414-.875-11.593-2.612-17.75-4.506-3.374-1.04-6.812-2.866-11.056-4.42z" fill="#FFF"/><path d="M81.323 235.83c20.99-5.542 33.552-27.197 28.057-48.37-5.495-21.17-26.966-33.84-47.957-28.298-20.99 5.543-33.552 27.2-28.057 48.37 5.495 21.17 26.966 33.84 47.957 28.3z" fill="#BFBFBF"/><path d="M47.984 226.375c30.56 28.56 76.556-10.672 56.302-45.323-2.275-3.89-5.228-6.853-4.256-3.872 6.473 19.925.49 35.687-10.67 43.807-10.943 7.966-25.983 9.298-38.025 3-3.536-1.847-5.003.846-3.35 2.388z"/><path d="M71.962 232.24c3.89-.825 26.52-6.736 31.836-25.508 1.655-5.853 1.953-4.677 1.485-1.506-2.388 16.187-17.558 28.128-30.467 28.57-2.62.272-6.056-.88-2.854-1.555z" fill="#FFF"/><path d="M24 87.89C9.865 89.27-.48 101.93.887 116.185c1.37 14.262 13.925 24.707 28.058 23.327 14.133-1.398 24.487-14.06 23.11-28.315-1.37-14.246-13.922-24.69-28.057-23.31z" fill="#BFBFBF"/><path d="M12.335 133.418c.157 1.832 2.645 4.186 6.553 5.267 3.358.928 12.014 3.3 23.134-3.778 11.12-7.08 12.403-26.014 7.348-31.583-1.565-2.82-3.6-4.875-1.98-.373 4.088 11.37-3.857 22.002-10.71 26.926-6.85 4.923-15.538 2.593-19.086 1.503-3.547-1.092-5.418.146-5.26 2.038z"/><path d="M26.685 135.962c1.02-.926 6.18-.547 10.838-3.074 4.655-2.526 10.19-8.064 11.177-15.933.582-4.62.757-3.46.988-.944-.722 13.083-12.65 20.31-19.472 21.262-1.84.258-5.08.1-3.53-1.31z" fill="#FFF"/><path d="M230.73 138.253C250 82.23 209.672-2.374 128.092 7.803c-73.713 9.192-74.9 87.445-9.938 106.037 73.584 11.235 29.275 67.223 22.99 95.457-5.636 25.31 59.467 29.474 89.584-71.044z" fill="#999"/><path d="M180.307 182.013c-19.934-2.49-48.62 42.906-21.573 37.59 27.045-5.313-27.048 5.316 0 0 13-1.945 23.772-6.574 33.414-17.674 12.57-14.47 31.35-45.728 36.783-65.923 4.576-17.028 2.277-43.41-2.44-18.622-4.837 25.44-26.248 67.116-46.183 64.628z" fill="#F3F3F3"/><path d="M46.4 218.324c4.615.078 7.407.733 12.08 4.04 9.24 3.873 26.22 1.42 34.062-8.993 7.842-10.41 8.1-24.758 5.112-33.426-7.31-21.217-38.36-20.84-52.23-3.227-15.006 19.67-3.64 41.528.976 41.607zM5.183 120.007c.92 2.922 3.27 7.185 8.234 7.896 6.628.95 7.984 3.97 15.81 2.402 7.827-1.567 13.76-8.036 16.134-15.192 2.72-9.902-1.35-15.014-7.476-19.578-6.124-4.564-19.597-4.073-27.638 3.32-5.714 5.25-7.303 14.038-5.063 21.152z" fill="#999"/><path d="M31.213 126.555c6.014-1.588 13.967-9.853 10.02-16.164-4.873-7.774-18.445-1.12-18.904 7.538-.462 8.66 2.51 10.31 8.883 8.627zM76.37 219.836c5.13-1.355 20.85-7.807 17.9-30.856-1.496-11.676-7.81 14.49-19.5 18.404-17.714 5.928-15.724 17.026 1.6 12.452z" fill="#F3F3F3"/></svg>
